!!!OTL: DER LUNZI KUMMT
!!!ARE: Europa, Mitteleuropa, Deutschland; France, Elsass
!!!SCT: E1898
!!!YEM: Copyright 1995, estate of Helmut Schaffrath.
**kern
*ICvox
*Ivox
*M2/4
*k[b-]
*F:
{8cc
=1
8.cc
16b-
8a
8cc
=2
8.cc
16b-
8a}
{8a
=3
8cc
8dd
8cc
8dd
=4
4cc
4a}
=5
{8cc
8dd
8cc
8dd
=6
4cc
4f}
=7
{8cc
8dd
8cc
8dd
=8
4cc
8f}
==
!!!AGN: Kinder - Lied, Plumpsack - Spiel
!!!ONB: ESAC (Essen Associative Code) Database: ERK3
!!!AMT: simple duple
!!!AIN: vox
!!!EED: Helmut Schaffrath
!!!EEV: 1.0
*-
